X: 159
T: 160. Gelobet seist du, Jesu Christ
N: Derived from chor160.krn
C: Johann Sebastian Bach
%%abc-version 2.0
%%abcx-abcm2ps-target-version 5.9.1 (29 Sep 2008)
%%abc-creator hum2abc beta
%%abcx-conversion-date 2019/03/11 17:28:18
%%abc-edited-by Craig Stuart Sapp
%%humdrum-veritas 3930740768
%%humdrum-veritas-data 4009591180
%%
%%barnumbers 0
L: 1/4
M: C
%%staves [1 2 3 4]
V: 1 clef=treble
V: 2 clef=treble
V: 3 clef=treble-8
V: 4 clef=bass
K: C
[V:1] G [I:setbarnb 1]| 
[V:2] D | 
[V:3] B | 
[V:4] G, | 
[V:1] GGAG | 
[V:2] EEFG | 
[V:3] Bccc/d/ | 
[V:4] E,C,F,E, | 
[V:1] cd!fermata!c2 | 
[V:2] AB!fermata!A2 | 
[V:3] ef!fermata!e2 | 
[V:4] A,^G,!fermata!A,2 | 
[V:1] Bded | 
[V:2] =GGG^F | 
[V:3] edc/B/A | 
[V:4] E,B,,C,D, | 
[V:1] BA!fermata!GG | 
[V:2] G^F!fermata!DE | 
[V:3] B/c/d!fermata!BB | 
[V:4] G,D,!fermata!G,E, | 
[V:1] cBdA | 
[V:2] E/^F/GGF | 
[V:3] cddd/c/ | 
[V:4] A,G,B,,/C,/D, | 
[V:1] GE!fermata!DD | 
[V:2] E/D/^C!fermata!A,D | 
[V:3] BA/G/!fermata!^F^F/G/ | 
[V:4] G,,A,,!fermata!D,D,/E,/ | 
[V:1] AAAB | 
[V:2] DA/G/^F^G | 
[V:3] A/B/^cdd | 
[V:4] ^F,/G,/A,/B,/CB, | 
[V:1] cA=G/A/B | 
[V:2] A=FE/^F/G- | 
[V:3] eccd- | 
[V:4] A,A,,/B,,/C,B,,/C,/ | 
[V:1] A2GG | 
[V:2] GF-F/D/E- | 
[V:3] d/A/d/c/Bc- | 
[V:4] D,C,/D,/E,D,/C,/ | 
[V:1] !fermata!G4 |]  
[V:2] ED/C/!fermata!D2 |]  
[V:3] cB/A/!fermata!B2 |]  
[V:4] G,2!fermata!G,,2 |]  



